src/images/icons/soc-5-telegram.svg

<svg xmlns="http://www.w3.org/2000/svg" width="48" height="40" fill="none" viewBox="0 0 48 40">
	<g clip-path="url(#soc-5-telegram-a)">
		<path fill="#003067" d="M46.56 1.12C46 .4 45.12 0 44.16 0c-.56 0-1.12.08-1.68.32L2.4 15.6c-2.16.8-2.4 2-2.4 2.64 0 .64.4 1.84 2.56 2.56l8.32 2.4L15.36 36c.64 1.76 2 2.8 3.6 2.8 1.04 0 2-.4 2.88-1.2l5.12-4.72 7.44 6 .08.08c.8.64 1.76.96 2.64.96 1.76 0 3.12-1.28 3.52-3.28L47.2 4.4c.24-1.36 0-2.48-.64-3.28zM13.68 22.8l16-8.16-10 10.56c-.16.16-.24.4-.32.64l-1.92 7.76-3.76-10.8zm6.24 12.8c-.08.08-.16.08-.16.16l1.76-7.2 3.28 2.64-4.88 4.4zM44.48 3.84l-6.56 32.4c-.08.32-.24 1.04-.8 1.04-.24 0-.56-.16-.88-.4l-8.4-6.8L22.8 26l14.4-15.36c.48-.48.48-1.28.08-1.76-.4-.56-1.12-.72-1.76-.4L11.84 20.64l-8.4-2.4 40-15.28c.32-.16.56-.16.72-.16.08 0 .24 0 .32.08 0 .08.08.4 0 .96z"/>
	</g>
	<defs>
		<clipPath id="soc-5-telegram-a">
			<path fill="#fff" d="M0 0h47.2v40H0z"/>
		</clipPath>
	</defs>
</svg>

<svg width="48" height="40" viewBox="0 0 48 40" fill="none" xmlns="http://www.w3.org/2000/svg">
<g clip-path="url(#clip0)">
<path d="M46.56 1.12C46 0.4 45.12 0 44.16 0C43.6 0 43.04 0.08 42.48 0.32L2.4 15.6C0.24 16.4 0 17.6 0 18.24C0 18.88 0.4 20.08 2.56 20.8L10.88 23.2L15.36 36C16 37.76 17.36 38.8 18.96 38.8C20 38.8 20.96 38.4 21.84 37.6L26.96 32.88L34.4 38.88L34.48 38.96C35.28 39.6 36.24 39.92 37.12 39.92C38.88 39.92 40.24 38.64 40.64 36.64L47.2 4.4C47.44 3.04 47.2 1.92 46.56 1.12ZM13.68 22.8L29.68 14.64L19.68 25.2C19.52 25.36 19.44 25.6 19.36 25.84L17.44 33.6L13.68 22.8ZM19.92 35.6C19.84 35.68 19.76 35.68 19.76 35.76L21.52 28.56L24.8 31.2L19.92 35.6ZM44.48 3.84L37.92 36.24C37.84 36.56 37.68 37.28 37.12 37.28C36.88 37.28 36.56 37.12 36.24 36.88L27.84 30.08L22.8 26L37.2 10.64C37.68 10.16 37.68 9.36 37.28 8.88C36.88 8.32 36.16 8.16 35.52 8.48L11.84 20.64L3.44 18.24L43.44 2.96C43.76 2.8 44 2.8 44.16 2.8C44.24 2.8 44.4 2.8 44.48 2.88C44.48 2.96 44.56 3.28 44.48 3.84Z" fill="#003067"/>
</g>
<defs>
<clipPath id="clip0">
<rect width="47.2" height="40" fill="white"/>
</clipPath>
</defs>
</svg>
